X:3
T:Pollonoisse ur J.O Löfvéns notbok
N:Ur Dansmusik för Violin av J.O Löfvén
O:Sollentuna, Uppland
R:Polska
Z:Till abc av Jon Magnusson 090902
M:3/4
L:1/16
K:Bb
B,2BA B2D2 F4|B2BA B2d2 f4|e2ed c2cB A2AG|(FB)AB (cB)AG (FE)DC|
B,2BA B2D2 F4|B2BA B2d2 f4|e2ed c2cB A2AG|(FB)AB c4 B4::
c2(cB c2)cd e2(cA)|B2(BA) B2d2 f4|c2cB (cB)cd (ec)AF|B2BA (Bc)de f3f|
g2g^f g2b2 B2b2|f2f=e f2b2 B2b2|g2g^f (gf)ga b2b2|=f2f=e (fe)fg b2b2|
e3(c d3)(B c2)A2|(Fe)cA [E4c4] [D4B4]:|

